src/assets/dashboard_card.svg

<svg width="658" height="400" viewBox="0 0 658 400" fill="none" xmlns="http://www.w3.org/2000/svg">
<path fill-rule="evenodd" clip-rule="evenodd" d="M-13.5244 -17.5134L-211.514 180.477C-214.638 183.601 -214.638 188.666 -211.514 191.79L-17.1123 386.192C-13.9881 389.316 -8.9228 389.316 -5.7986 386.192L192.191 188.202C195.315 185.078 195.315 180.013 192.191 176.889L-2.21068 -17.5134C-5.33487 -20.6375 -10.4002 -20.6375 -13.5244 -17.5134ZM-212.928 179.062C-216.834 182.968 -216.834 189.299 -212.928 193.204L-18.5265 387.606C-14.6213 391.512 -8.28963 391.512 -4.38438 387.606L193.605 189.617C197.511 185.711 197.511 179.38 193.605 175.474L-0.796463 -18.9276C-4.70171 -22.8328 -11.0334 -22.8328 -14.9386 -18.9276L-212.928 179.062Z" fill="#333A5A"/>
<path fill-rule="evenodd" clip-rule="evenodd" d="M345.84 97.2657L82.4857 360.62C79.3615 363.744 79.3615 368.81 82.4857 371.934L349.778 639.226C352.902 642.35 357.967 642.35 361.091 639.226L624.446 375.871C627.57 372.747 627.57 367.682 624.446 364.558L357.154 97.2657C354.03 94.1416 348.964 94.1416 345.84 97.2657ZM81.0715 359.206C77.1663 363.111 77.1663 369.443 81.0715 373.348L348.363 640.64C352.269 644.545 358.6 644.545 362.505 640.64L625.86 377.285C629.765 373.38 629.765 367.049 625.86 363.143L358.568 95.8515C354.663 91.9463 348.331 91.9463 344.426 95.8515L81.0715 359.206Z" fill="#333A5A"/>
<path fill-rule="evenodd" clip-rule="evenodd" d="M341.053 -75.0802L-59.0965 325.069C-62.2207 328.193 -62.2206 333.259 -59.0965 336.383L213.283 608.763C216.407 611.887 221.473 611.887 224.597 608.763L624.746 208.613C627.871 205.489 627.871 200.424 624.746 197.3L352.367 -75.0802C349.243 -78.2044 344.177 -78.2044 341.053 -75.0802ZM-60.5107 323.655C-64.4159 327.56 -64.4159 333.892 -60.5107 337.797L211.869 610.177C215.774 614.082 222.106 614.082 226.011 610.177L626.161 210.027C630.066 206.122 630.066 199.791 626.161 195.885L353.781 -76.4944C349.876 -80.3996 343.544 -80.3996 339.639 -76.4944L-60.5107 323.655Z" fill="#333A5A"/>
<path fill-rule="evenodd" clip-rule="evenodd" d="M341.62 206.485L69.4857 478.619C66.3615 481.743 66.3615 486.809 69.4857 489.933L336.778 757.225C339.902 760.349 344.967 760.349 348.091 757.225L620.225 485.091C623.349 481.967 623.349 476.901 620.225 473.777L352.933 206.485C349.809 203.361 344.744 203.361 341.62 206.485ZM68.0715 477.205C64.1663 481.11 64.1663 487.442 68.0715 491.347L335.363 758.639C339.269 762.544 345.6 762.544 349.505 758.639L621.639 486.505C625.545 482.6 625.545 476.268 621.639 472.363L354.347 205.071C350.442 201.166 344.111 201.166 340.205 205.071L68.0715 477.205Z" fill="#333A5A"/>
<path fill-rule="evenodd" clip-rule="evenodd" d="M384.62 284.485L112.486 556.619C109.362 559.743 109.362 564.808 112.486 567.932L379.778 835.224C382.902 838.348 387.967 838.348 391.091 835.224L663.225 563.09C666.349 559.966 666.349 554.901 663.225 551.777L395.933 284.485C392.809 281.361 387.744 281.361 384.62 284.485ZM111.072 555.205C107.166 559.11 107.166 565.441 111.072 569.347L378.363 836.638C382.269 840.544 388.6 840.544 392.505 836.638L664.639 564.505C668.545 560.599 668.545 554.268 664.639 550.363L397.347 283.071C393.442 279.165 387.111 279.165 383.205 283.071L111.072 555.205Z" fill="#333A5A"/>
<path fill-rule="evenodd" clip-rule="evenodd" d="M473.647 -87.2115L310.894 75.542C307.77 78.6662 307.77 83.7315 310.894 86.8557L449.983 225.945C453.107 229.069 458.173 229.069 461.297 225.945L624.05 63.1915C627.175 60.0673 627.175 55.002 624.05 51.8778L484.961 -87.2115C481.837 -90.3357 476.771 -90.3357 473.647 -87.2115ZM309.48 74.1277C305.574 78.033 305.574 84.3646 309.48 88.2699L448.569 227.359C452.474 231.264 458.806 231.264 462.711 227.359L625.465 64.6057C629.37 60.7005 629.37 54.3688 625.465 50.4636L486.375 -88.6258C482.47 -92.531 476.138 -92.531 472.233 -88.6257L309.48 74.1277Z" fill="#333A5A"/>
<path fill-rule="evenodd" clip-rule="evenodd" d="M85.4756 231.485L-112.514 429.475C-115.638 432.599 -115.638 437.665 -112.514 440.789L81.8877 635.191C85.0119 638.315 90.0772 638.315 93.2014 635.191L291.191 437.201C294.315 434.077 294.315 429.011 291.191 425.887L96.7893 231.485C93.6651 228.361 88.5998 228.361 85.4756 231.485ZM-113.928 428.061C-117.834 431.966 -117.834 438.298 -113.928 442.203L80.4735 636.605C84.3787 640.51 90.7104 640.51 94.6156 636.605L292.605 438.615C296.511 434.71 296.511 428.378 292.605 424.473L98.2036 230.071C94.2983 226.166 87.9666 226.166 84.0614 230.071L-113.928 428.061Z" fill="#333A5A"/>
</svg>

<svg width="658" height="400" fill="none" xmlns="http://www.w3.org/2000/svg"><path fill-rule="evenodd" clip-rule="evenodd" d="M-13.524-17.513l-197.99 197.99a8 8 0 0 0 0 11.313l194.402 194.402a8 8 0 0 0 11.313 0l197.99-197.99a8 8 0 0 0 0-11.313L-2.211-17.513a8 8 0 0 0-11.313 0zm-199.404 196.575c-3.906 3.906-3.906 10.237 0 14.142l194.401 194.402c3.906 3.906 10.237 3.906 14.143 0l197.989-197.989c3.906-3.906 3.906-10.237 0-14.143L-.796-18.928c-3.906-3.905-10.237-3.905-14.143 0l-197.989 197.99zM345.84 97.266L82.486 360.62a8 8 0 0 0 0 11.314l267.292 267.292a8 8 0 0 0 11.313 0l263.355-263.355a8 8 0 0 0 0-11.313L357.154 97.266a8 8 0 0 0-11.314 0zM81.072 359.206c-3.906 3.905-3.906 10.237 0 14.142L348.363 640.64c3.906 3.905 10.237 3.905 14.142 0L625.86 377.285c3.905-3.905 3.905-10.236 0-14.142L358.568 95.852c-3.905-3.906-10.237-3.906-14.142 0L81.072 359.205z" fill="#333A5A"/><path fill-rule="evenodd" clip-rule="evenodd" d="M341.053-75.08l-400.15 400.149a8 8 0 0 0 0 11.314l272.38 272.38a8 8 0 0 0 11.314 0l400.149-400.15a7.998 7.998 0 0 0 0-11.313L352.367-75.08a8 8 0 0 0-11.314 0zM-60.511 323.655c-3.905 3.905-3.905 10.237 0 14.142l272.38 272.38c3.905 3.905 10.237 3.905 14.142 0l400.15-400.15c3.905-3.905 3.905-10.236 0-14.142l-272.38-272.38c-3.905-3.905-10.237-3.905-14.142 0l-400.15 400.15z" fill="#333A5A"/><path fill-rule="evenodd" clip-rule="evenodd" d="M341.62 206.485L69.486 478.619a8 8 0 0 0 0 11.314l267.292 267.292a8 8 0 0 0 11.313 0l272.134-272.134a8 8 0 0 0 0-11.314L352.933 206.485a8 8 0 0 0-11.313 0zM68.072 477.205c-3.906 3.905-3.906 10.237 0 14.142l267.291 267.292c3.906 3.905 10.237 3.905 14.142 0l272.134-272.134c3.906-3.905 3.906-10.237 0-14.142L354.347 205.071c-3.905-3.905-10.236-3.905-14.142 0L68.072 477.205z" fill="#333A5A"/><path fill-rule="evenodd" clip-rule="evenodd" d="M384.62 284.485L112.486 556.619a8 8 0 0 0 0 11.313l267.292 267.292a8 8 0 0 0 11.313 0L663.225 563.09a8 8 0 0 0 0-11.313L395.933 284.485a8 8 0 0 0-11.313 0zm-273.548 270.72c-3.906 3.905-3.906 10.236 0 14.142l267.291 267.291c3.906 3.906 10.237 3.906 14.142 0l272.134-272.133c3.906-3.906 3.906-10.237 0-14.142L397.347 283.071c-3.905-3.906-10.236-3.906-14.142 0L111.072 555.205zM473.647-87.212L310.894 75.542a8 8 0 0 0 0 11.314l139.089 139.089a8 8 0 0 0 11.314 0L624.05 63.191a7.999 7.999 0 0 0 0-11.313L484.961-87.212a8 8 0 0 0-11.314 0zM309.48 74.129c-3.906 3.905-3.906 10.237 0 14.142l139.089 139.089c3.905 3.905 10.237 3.905 14.142 0L625.465 64.606c3.905-3.905 3.905-10.237 0-14.142l-139.09-139.09c-3.905-3.905-10.237-3.905-14.142 0L309.48 74.128z" fill="#333A5A"/><path fill-rule="evenodd" clip-rule="evenodd" d="M85.476 231.485l-197.99 197.99a8 8 0 0 0 0 11.314L81.888 635.191a8 8 0 0 0 11.313 0l197.99-197.99a8 8 0 0 0 0-11.314L96.789 231.485a8 8 0 0 0-11.313 0zm-199.404 196.576c-3.906 3.905-3.906 10.237 0 14.142L80.473 636.605c3.906 3.905 10.237 3.905 14.143 0l197.989-197.99c3.906-3.905 3.906-10.237 0-14.142L98.204 230.071c-3.906-3.905-10.237-3.905-14.143 0l-197.989 197.99z" fill="#333A5A"/></svg>
